wp-content/plugins/wp-and-divi-icons/svg/ags_icon_soundcloud.svg

<!--Generator: Adobe Illustrator 16.0.3, SVG Export Plug-In . SVG Version: 6.00 Build 0)--><svg xmlns="http://www.w3.org/2000/svg" width="64" height="64"><g fill="none" stroke="#000" stroke-linecap="round" stroke-linejoin="round" stroke-miterlimit="10"><path d="M1.6 41.8c0 2.5 3.9 3.1 4.4 0V34c-.5-2.6-4.5-2.6-4.4 0v7.8h0zM8.2 45.1c.2 2.1 4.1 2.2 4.4 0V27c-.3-2.6-4.3-2.6-4.4 0v18.1zM14.7 46c.4 2.1 4.4 2.1 4.4 0V29.4c-.1-2.7-4-2.6-4.4 0V46h0zM21.4 46c.7 2.1 4.6 2.1 4.4 0V17.9c.2-2.7-3.8-2.6-4.4 0V46h0zM29.5 47.4V18.2c0-.9.3-1.5.8-1.7 9.3-2.2 18.6 4.3 19.5 14.1 9.1-3.9 16.9 7.8 9.9 14.8-1.8 1.8-3.9 2.7-6.4 2.7H30c-.4-.1-.5-.5-.5-.7h0z"/></g></svg>

<?xml version="1.0" encoding="utf-8"?>
<!-- Generator: Adobe Illustrator 16.0.3, SVG Export Plug-In . SVG Version: 6.00 Build 0)  -->
<!DOCTYPE svg PUBLIC "-//W3C//DTD SVG 1.1//EN" "http://www.w3.org/Graphics/SVG/1.1/DTD/svg11.dtd">
<svg version="1.1" id="All" xmlns="http://www.w3.org/2000/svg" xmlns:xlink="http://www.w3.org/1999/xlink" x="0px" y="0px"
	 width="64px" height="64px" viewBox="0 0 64 64" enable-background="new 0 0 64 64" xml:space="preserve">
<g id="_x32_01-301">
	<g id="Layer_302">
	</g>
	<g id="Layer_301">
	</g>
	<g id="Layer_299">
	</g>
	<g id="Layer_298">
	</g>
	<g id="Layer_297">
	</g>
	<g id="Layer_296">
	</g>
	<g id="Layer_295">
	</g>
	<g id="Layer_294">
	</g>
	<g id="Layer_293">
	</g>
	<g id="Layer_292">
	</g>
	<g id="Layer_291">
	</g>
	<g id="Layer_290">
	</g>
	<g id="Layer_289">
	</g>
	<g id="Layer_288">
	</g>
	<g id="Layer_287">
	</g>
	<g id="Layer_286">
		<g>
			<path id="XMLID_93_" fill="none" stroke="#000000" stroke-linecap="round" stroke-linejoin="round" stroke-miterlimit="10" d="
				M1.6,41.8c0,2.5,3.9,3.1,4.4,0V34c-0.5-2.6-4.5-2.6-4.4,0V41.8L1.6,41.8z"/>
			<path id="XMLID_79_" fill="none" stroke="#000000" stroke-linecap="round" stroke-linejoin="round" stroke-miterlimit="10" d="
				M8.2,45.1c0.2,2.1,4.1,2.2,4.4,0V27c-0.3-2.6-4.3-2.6-4.4,0V45.1z"/>
			<path id="XMLID_77_" fill="none" stroke="#000000" stroke-linecap="round" stroke-linejoin="round" stroke-miterlimit="10" d="
				M14.7,46c0.4,2.1,4.4,2.1,4.4,0V29.4c-0.1-2.7-4-2.6-4.4,0V46L14.7,46z"/>
			<path id="XMLID_75_" fill="none" stroke="#000000" stroke-linecap="round" stroke-linejoin="round" stroke-miterlimit="10" d="
				M21.4,46c0.7,2.1,4.6,2.1,4.4,0V17.9c0.2-2.7-3.8-2.6-4.4,0V46L21.4,46z"/>
			<path id="XMLID_73_" fill="none" stroke="#000000" stroke-linecap="round" stroke-linejoin="round" stroke-miterlimit="10" d="
				M29.5,47.4V18.2c0-0.9,0.3-1.5,0.8-1.7c9.3-2.2,18.6,4.3,19.5,14.1c9.1-3.9,16.9,7.8,9.9,14.8c-1.8,1.8-3.9,2.7-6.4,2.7l-23.3,0
				C29.6,48,29.5,47.6,29.5,47.4L29.5,47.4z"/>
		</g>
	</g>
	<g id="Layer_285">
	</g>
	<g id="Layer_284">
	</g>
	<g id="Layer_283">
	</g>
	<g id="Layer_282">
	</g>
	<g id="Layer_281">
	</g>
	<g id="Layer_280">
	</g>
	<g id="Layer_279">
	</g>
	<g id="Layer_278">
	</g>
	<g id="Layer_277">
	</g>
	<g id="Layer_276">
	</g>
	<g id="Layer_275">
	</g>
	<g id="Layer_274">
	</g>
	<g id="Layer_273">
	</g>
	<g id="Layer_272">
	</g>
	<g id="Layer_271">
	</g>
	<g id="Layer_270">
	</g>
	<g id="Layer_269">
	</g>
	<g id="Layer_268">
	</g>
	<g id="Layer_267">
	</g>
	<g id="Layer_266">
	</g>
	<g id="Layer_265">
	</g>
	<g id="Layer_264">
	</g>
	<g id="Layer_263">
	</g>
	<g id="Layer_262">
	</g>
	<g id="Layer_261">
	</g>
	<g id="Layer_260">
	</g>
	<g id="Layer_259">
	</g>
	<g id="Layer_258">
	</g>
	<g id="Layer_257">
	</g>
	<g id="Layer_256">
	</g>
	<g id="Layer_255">
	</g>
	<g id="Layer_254">
	</g>
	<g id="Layer_253">
	</g>
	<g id="Layer_252">
	</g>
	<g id="Layer_251">
	</g>
	<g id="Layer_250">
	</g>
	<g id="Layer_249">
	</g>
	<g id="Layer_248">
	</g>
	<g id="Layer_247">
	</g>
	<g id="Layer_246">
	</g>
	<g id="Layer_245">
	</g>
	<g id="Layer_244">
	</g>
	<g id="Layer_243">
	</g>
	<g id="Layer_242">
	</g>
	<g id="Layer_241">
	</g>
	<g id="Layer_240">
	</g>
	<g id="Layer_239">
	</g>
	<g id="Layer_238">
	</g>
	<g id="Layer_237">
	</g>
	<g id="Layer_236">
	</g>
	<g id="Layer_235">
	</g>
	<g id="Layer_234">
	</g>
	<g id="Layer_233">
	</g>
	<g id="Layer_232">
	</g>
	<g id="Layer_231">
	</g>
	<g id="Layer_230">
	</g>
	<g id="Layer_229">
	</g>
	<g id="Layer_228">
	</g>
	<g id="Layer_227">
	</g>
	<g id="Layer_226">
	</g>
	<g id="Layer_225">
	</g>
	<g id="Layer_224">
	</g>
	<g id="Layer_223">
	</g>
	<g id="Layer_222">
	</g>
	<g id="Layer_221">
	</g>
	<g id="Layer_219">
	</g>
	<g id="Layer_220">
	</g>
	<g id="Layer_218">
	</g>
	<g id="Layer_217">
	</g>
	<g id="_x32_16">
	</g>
	<g id="_x32_15">
	</g>
	<g id="_x32_14">
	</g>
	<g id="_x32_13">
	</g>
	<g id="_x32_12">
	</g>
	<g id="_x32_11">
	</g>
	<g id="_x32_10">
	</g>
	<g id="_x32_09">
	</g>
	<g id="_x32_08">
	</g>
	<g id="_x32_07">
	</g>
	<g id="_x32_06">
	</g>
	<g id="_x32_05">
	</g>
	<g id="_x32_04">
	</g>
	<g id="_x32_03">
	</g>
	<g id="_x32_02">
	</g>
	<g id="_x32_01">
	</g>
</g>
<g id="_x31_01-200">
	<g id="_x32_00">
	</g>
	<g id="_x31_99">
	</g>
	<g id="_x31_98">
	</g>
	<g id="_x31_97_1_">
	</g>
	<g id="_x31_96_1_">
	</g>
	<g id="_x31_95_1_">
	</g>
	<g id="_x31_94_1_">
	</g>
	<g id="_x31_93_1_">
	</g>
	<g id="_x31_92_1_">
	</g>
	<g id="_x31_91_1_">
	</g>
	<g id="_x31_90_1_">
	</g>
	<g id="_x31_89">
	</g>
	<g id="_x31_88">
	</g>
	<g id="_x31_87">
	</g>
	<g id="_x31_86">
	</g>
	<g id="_x31_85">
	</g>
	<g id="_x31_84">
	</g>
	<g id="_x31_83">
	</g>
	<g id="_x31_82">
	</g>
	<g id="_x31_81">
	</g>
	<g id="_x31_80">
	</g>
	<g id="_x31_79">
	</g>
	<g id="_x31_78">
	</g>
	<g id="_x31_77">
	</g>
	<g id="_x31_76">
	</g>
	<g id="_x31_75">
	</g>
	<g id="_x31_74">
	</g>
	<g id="_x31_73">
	</g>
	<g id="_x31_72">
	</g>
	<g id="_x31_71">
	</g>
	<g id="_x31_70">
	</g>
	<g id="_x31_69">
	</g>
	<g id="_x31_68">
	</g>
	<g id="_x31_67">
	</g>
	<g id="_x31_66">
	</g>
	<g id="_x31_65">
	</g>
	<g id="_x31_64">
	</g>
	<g id="_x31_63">
	</g>
	<g id="_x31_62">
	</g>
	<g id="_x31_61">
	</g>
	<g id="_x31_60">
	</g>
	<g id="_x31_59">
	</g>
	<g id="_x31_58">
	</g>
	<g id="_x31_57">
	</g>
	<g id="_x31_56">
	</g>
	<g id="_x31_55">
	</g>
	<g id="_x31_54">
	</g>
	<g id="_x31_53">
	</g>
	<g id="_x31_52">
	</g>
	<g id="_x31_51">
	</g>
	<g id="_x31_50">
	</g>
	<g id="_x31_49">
	</g>
	<g id="_x31_48">
	</g>
	<g id="_x31_47">
	</g>
	<g id="_x31_46">
	</g>
	<g id="_x31_45">
	</g>
	<g id="_x31_44">
	</g>
	<g id="_x31_43">
	</g>
	<g id="_x31_42">
	</g>
	<g id="_x31_41">
	</g>
	<g id="_x31_40">
	</g>
	<g id="_x31_39">
	</g>
	<g id="_x31_38">
	</g>
	<g id="_x31_37">
	</g>
	<g id="_x31_36">
	</g>
	<g id="_x31_35">
	</g>
	<g id="_x31_34">
	</g>
	<g id="_x31_33">
	</g>
	<g id="_x31_32">
	</g>
	<g id="_x31_31">
	</g>
	<g id="_x31_30">
	</g>
	<g id="_x31_29">
	</g>
	<g id="_x31_28">
	</g>
	<g id="_x31_27_1_">
	</g>
	<g id="_x31_26">
	</g>
	<g id="_x31_25">
	</g>
	<g id="_x31_24">
	</g>
	<g id="_x31_23">
	</g>
	<g id="_x31_22">
	</g>
	<g id="_x31_21">
	</g>
	<g id="_x31_20">
	</g>
	<g id="_x31_19">
	</g>
	<g id="_x31_18">
	</g>
	<g id="_x31_17">
	</g>
	<g id="_x31_16">
	</g>
	<g id="_x31_15">
	</g>
	<g id="_x31_14">
	</g>
	<g id="_x31_13">
	</g>
	<g id="_x31_12">
	</g>
	<g id="_x31_11">
	</g>
	<g id="_x31_10">
	</g>
	<g id="_x31_09">
	</g>
	<g id="_x31_08">
	</g>
	<g id="_x31_07">
	</g>
	<g id="_x31_06">
	</g>
	<g id="_x31_05">
	</g>
	<g id="_x31_04">
	</g>
	<g id="_x31_03">
	</g>
	<g id="_x31_02">
	</g>
	<g id="_x31_01">
	</g>
</g>
<g id="_x31_-100">
	<g id="_x31_00">
	</g>
	<g id="_x39_9">
	</g>
	<g id="_x39_8">
	</g>
	<g id="_x39_7">
	</g>
	<g id="_x39_6">
	</g>
	<g id="_x39_5">
	</g>
	<g id="_x39_4">
	</g>
	<g id="_x39_3">
	</g>
	<g id="_x39_2">
	</g>
	<g id="_x39_1">
	</g>
	<g id="_x39_0">
	</g>
	<g id="_x38_9">
	</g>
	<g id="_x38_8">
	</g>
	<g id="_x38_7">
	</g>
	<g id="_x38_6">
	</g>
	<g id="_x38_5">
	</g>
	<g id="_x38_4">
	</g>
	<g id="_x38_3">
	</g>
	<g id="_x38_2">
	</g>
	<g id="_x38_1">
	</g>
	<g id="_x38_0">
	</g>
	<g id="_x37_9">
	</g>
	<g id="_x37_8">
	</g>
	<g id="_x37_7">
	</g>
	<g id="_x37_6">
	</g>
	<g id="_x37_5_1_">
	</g>
	<g id="_x37_4_1_">
	</g>
	<g id="_x37_3_1_">
	</g>
	<g id="_x37_2">
	</g>
	<g id="_x37_1">
	</g>
	<g id="_x37_0">
	</g>
	<g id="_x36_9">
	</g>
	<g id="_x36_8">
	</g>
	<g id="_x36_7">
	</g>
	<g id="_x36_6">
	</g>
	<g id="_x36_5">
	</g>
	<g id="_x36_4">
	</g>
	<g id="_x36_3">
	</g>
	<g id="_x36_2">
	</g>
	<g id="_x36_1">
	</g>
	<g id="_x36_0">
	</g>
	<g id="_x35_9">
	</g>
	<g id="_x35_8">
	</g>
	<g id="_x35_7">
	</g>
	<g id="_x35_6">
	</g>
	<g id="_x35_5">
	</g>
	<g id="_x35_4">
	</g>
	<g id="_x35_3">
	</g>
	<g id="_x35_2">
	</g>
	<g id="_x35_1">
	</g>
	<g id="_x35_0">
	</g>
	<g id="_x34_9">
	</g>
	<g id="_x34_8">
	</g>
	<g id="_x34_7">
	</g>
	<g id="_x34_6">
	</g>
	<g id="_x34_5">
	</g>
	<g id="_x34_4">
	</g>
	<g id="_x34_3">
	</g>
	<g id="_x34_2">
	</g>
	<g id="_x34_1">
	</g>
	<g id="_x34_0">
	</g>
	<g id="_x33_9">
	</g>
	<g id="_x33_7">
	</g>
	<g id="_x33_6">
	</g>
	<g id="_x33_5">
	</g>
	<g id="_x33_4">
	</g>
	<g id="_x33_3">
	</g>
	<g id="_x33_2">
	</g>
	<g id="_x33_1">
	</g>
	<g id="_x33_0">
	</g>
	<g id="_x32_9">
	</g>
	<g id="_x32_8">
	</g>
	<g id="_x32_7">
	</g>
	<g id="_x32_6">
	</g>
	<g id="_x32_5">
	</g>
	<g id="_x32_4">
	</g>
	<g id="_x32_3">
	</g>
	<g id="_x32_2">
	</g>
	<g id="_x32_1">
	</g>
	<g id="_x32_0">
	</g>
	<g id="_x31_9">
	</g>
	<g id="_x31_8">
	</g>
	<g id="_x31_7">
	</g>
	<g id="_x31_6">
	</g>
	<g id="_x31_5">
	</g>
	<g id="_x31_4">
	</g>
	<g id="_x31_3">
	</g>
	<g id="_x31_2">
	</g>
	<g id="_x31_1">
	</g>
	<g id="_x31_0">
	</g>
	<g id="_x39_">
	</g>
	<g id="_x38_">
	</g>
	<g id="_x37_">
	</g>
	<g id="_x36_">
	</g>
	<g id="_x35_">
	</g>
	<g id="_x34_">
	</g>
	<g id="_x33_">
	</g>
	<g id="_x32_">
	</g>
	<g id="_x31__1_">
	</g>
</g>
</svg>
